X: 35012
T: Roland's Return
R: jig
M: 6/8
K: Eminor
FEF AFF|cFF AFF|G2 A Bcd|fed cAG|
FEF AFF|cFF AGF|G2 A BAG|AFD D2:|
d2 e fed|e^cA A=Bc|d2 e fed|agf gfe|
d2 e fed|e^cA AGF|G2 A BAG|AFD D2 A|
d2 e fed|e^cA A=Bc|d2 e fef|afd def|
agf gfe|fed cAF|g2 A BAG|AFD D2||
GFG BGG|dGG BGG|A2 B cde|gfe dBA|
GFG BGG|dGG BAG|A2 B cBA|BGE E2:|
e2 f gfe|f^dB Bcd|e2 f gfe|bag agf|
e2 f gfe|f^dB BAG|A2 B cBA|BGE E2 B|
e2 f gfe|f^dB Bcd|e2 f gfg|bge efg|
bag agf|gfe dBG|a2 B cBA|BGE E2||

